static/fa/svgs/solid/person-rays.svg

<svg xmlns="http://www.w3.org/2000/svg" viewBox="0 0 512 512"><!--! Font Awesome Free 6.1.1 by @fontawesome - https://fontawesome.com License - https://fontawesome.com/license/free (Icons: CC BY 4.0, Fonts: SIL OFL 1.1, Code: MIT License) Copyright 2022 Fonticons, Inc.--><path d="M304 48c0 26.51-21.5 48-48 48s-48-21.49-48-48 21.5-48 48-48 48 21.49 48 48zm-56 304v128c0 17.7-14.3 32-32 32s-32-14.3-32-32V256.9l-28.6 47.6c-9.1 15.1-28.7 20-43.9 10.9-15.13-9.1-20.03-28.7-10.9-43.9l58.2-96.9c17.4-28.9 48.6-46.6 82.3-46.6h29.8c33.7 0 64.9 17.7 82.3 46.6l58.2 96.9c9.1 15.2 4.2 34.8-10.9 43.9-15.2 9.1-34.8 4.2-43.9-10.9L328 256.9V480c0 17.7-14.3 32-32 32s-32-14.3-32-32V352h-16zM7.029 7.029c9.371-9.372 24.571-9.372 33.941 0L120.1 87.03c10.2 9.37 10.2 24.57 0 33.07-8.5 10.2-23.7 10.2-33.07 0L7.029 40.97c-9.372-9.37-9.372-24.57 0-33.941zm463.971 0c9.4-9.372 24.6-9.372 33.1 0 10.2 9.371 10.2 24.571 0 33.941l-80 79.13c-8.5 10.2-23.7 10.2-33.1 0-9.3-8.5-9.3-23.7 0-33.07l80-80.001zM7.029 471l80.001-80c9.37-9.3 24.57-9.3 33.07 0 10.2 9.4 10.2 24.6 0 33.1l-79.13 80c-9.37 10.2-24.57 10.2-33.941 0-9.372-8.5-9.372-23.7 0-33.1zM391 424.1c-9.3-8.5-9.3-23.7 0-33.1 9.4-9.3 24.6-9.3 33.1 0l80 80c10.2 9.4 10.2 24.6 0 33.1-8.5 10.2-23.7 10.2-33.1 0l-80-80z"/></svg>

<svg xmlns="http://www.w3.org/2000/svg" viewBox="0 0 512 512"><!--! Font Awesome Free 6.1.1 by @fontawesome - https://fontawesome.com License - https://fontawesome.com/license/free (Icons: CC BY 4.0, Fonts: SIL OFL 1.1, Code: MIT License) Copyright 2022 Fonticons, Inc. --><path d="M304 48C304 74.51 282.5 96 256 96C229.5 96 208 74.51 208 48C208 21.49 229.5 0 256 0C282.5 0 304 21.49 304 48zM248 352V480C248 497.7 233.7 512 216 512C198.3 512 184 497.7 184 480V256.9L155.4 304.5C146.3 319.6 126.7 324.5 111.5 315.4C96.37 306.3 91.47 286.7 100.6 271.5L158.8 174.6C176.2 145.7 207.4 128 241.1 128H270.9C304.6 128 335.8 145.7 353.2 174.6L411.4 271.5C420.5 286.7 415.6 306.3 400.5 315.4C385.3 324.5 365.7 319.6 356.6 304.5L328 256.9V480C328 497.7 313.7 512 296 512C278.3 512 264 497.7 264 480V352L248 352zM7.029 7.029C16.4-2.343 31.6-2.343 40.97 7.029L120.1 87.03C130.3 96.4 130.3 111.6 120.1 120.1C111.6 130.3 96.4 130.3 87.03 120.1L7.029 40.97C-2.343 31.6-2.343 16.4 7.029 7.029V7.029zM471 7.029C480.4-2.343 495.6-2.343 504.1 7.029C514.3 16.4 514.3 31.6 504.1 40.97L424.1 120.1C415.6 130.3 400.4 130.3 391 120.1C381.7 111.6 381.7 96.4 391 87.03L471 7.029zM7.029 471L87.03 391C96.4 381.7 111.6 381.7 120.1 391C130.3 400.4 130.3 415.6 120.1 424.1L40.97 504.1C31.6 514.3 16.4 514.3 7.029 504.1C-2.343 495.6-2.343 480.4 7.029 471V471zM391 424.1C381.7 415.6 381.7 400.4 391 391C400.4 381.7 415.6 381.7 424.1 391L504.1 471C514.3 480.4 514.3 495.6 504.1 504.1C495.6 514.3 480.4 514.3 471 504.1L391 424.1z"/></svg>
